X:1
T:Cruel, you pull away too soon - Morley
T:James Gibb editions
T:#
%%score { 1 | 2 } 3
L:1/8
Q:1/4=132
M:4/4
K:Eb
V:1 treble nm="Soprano I" snm="S"
V:2 treble 
V:3 treble-8 nm="Tenor" snm="T"
V:1
"^Cruel, you pull away too soon" z8 | B4 G2 c2 | BAG"^Thomas Morley\n(1557-1603)"F E2 A2 | %3
w: |Cru- el, you|pull a- way too soon your|
[M:4/4] G2 E2 A2 B2 | c2 e2 c2 f2 | e_dcB A2 d2- | d2 c2 B4 | c4 B2 (A2 | G2) (F4 E2) | %9
w: lips, your dain- ty|lips; cru- el, you|pull a- way too soon, too|* too soon|your lips when\-|* as *|
 (D2 E4) D2 | E2 B2 G2 c2 | BAGF E2 A2 | G2 B2 c2 _d2 | e2 e2 c2 f2 | e_dcB A2 d2 | cBAG F4 | %16
w: you * kiss|me. Cru- el, you|pull a- way too soon your|lips, your dain- ty|lips; cru- el, you|pull a- way too soon, you|pull a- way too soon|
 G2 A4 G2 | A4 G2 c2 | B4 A4- | A2 G2 F4 | G8 | B4 F3 G | A2 A2 G2 E2 | B2 F3 G A2- | A2 E2 E2 e2 | %25
w: your dain- ty|lips when- as|you kiss,|* you kiss|me.|But you should|hold them still, O|but you should hold|* them still, but|
 B3 c _d2 d2 | c2 A2 c2 c2 | B2 B2 c4 | F4 z4 | z2 B3 AGA | B2 E2 z2 e2- | e_dcd e2 B2 | %32
w: you should hold them|still, and then, then|should you bliss|me.|Now or ere I|taste them, straight|* a- way they haste them;|
 c2 A2 G2 E2 | F4 _d2 d2- | d2 c2 B4 | c2 A2 c3 _d | e4 z2 B2 | (c3 _d) e4 | z2 E2 G3 A | %39
w: or ere I taste|them, a- way|* they haste|them. But you per-|haps re-|tire * them|To move my|
 B2 G2 F4 | E2 A2 G2 (F2- | FE E4 D2) | E8 | z8 | z4 E4 | e8- | e4 _d4 | c4 B4 | A2 c2 (BAGF | %49
w: thoughts there- by,|the more to fire||them.||A-|las,|* a-|las, such|baits, such baits * * *|
 E2 A2 F2 (B2- | BAGF E2 FE) | D2 B3 A G2) | F2 F2 E2 E2 | (F2 G2) A2 e2- | ee _d2 c4 | B4 z2 B2- | %56
w: * you need to||find, you * *|need to find out|ne\- * ver: If|* you would let|me, if|
 BB A2 G2 E2 | F2 G2 A4 | E2 B2 c2 d2 | e4 B4 | z2 e3 e _d2 | c4 B4 | A2 A2 G2 E2 | (D2 E4 D2) | %64
w: * you would let me,|you would let|me, if you would|let me,|if you would|let me,|I would kiss you|e\- * *|
 E4 E4 | B8- | B4 A4 | G4 F4 | E4 B4 | e8- | e4 _d4 | c4 (B2 F2) | G2 B4 AG | (FE) F2 E4 | %74
w: ver. A-|las,|* a-|las, such|baits, a-|las,|* a-|las, such *|baits you need to|find * out ne-|
 B,4 z2 e2- | ee _d2 c4 | B4 z2 A2- | AA G2 F4 | E4 z2 e2- | ee _d2 c4 | B4 z2 A2- | AA G2 F4 | %82
w: ver: If|* you would let|me, if|* you would let|me if|* you would let|me, if|* you would let|
 E2 E2 F2 G2 | A2 e3 e _d2 | c3 B AG F2 | BAGF E2 A2- | %86
w: me, you should not|fear if you would|let me I would kiss,|kiss and kiss, and kiss, kiss|
 A2[Q:1/4=130] G2[Q:1/4=127] F2[Q:1/4=124] E2 |[Q:1/4=121] D2[Q:1/4=118] E2[Q:1/4=114] F4 | %88
w: * and kiss, and|kiss you e-|
[Q:1/4=112] G8 |] %89
w: ver.|
V:2
 B4 G2 c2 | BAGF E2 A2 | G2 B2 c2 d2 |[M:4/4] e2 e2 c2 f2 | e_dcB A2 d2 | cBAG F4 | G2 A4 G2 | %7
w: Cru- el, you|pull a- way too soon your|lips, your dain- ty|lips; cru- el, you|pull a- way too soon, you|pull a- way too soon|your dain- ty|
 A4 A2 c2 | B4 A4- | A2 G2 F4 | G4 z4 | B4 G2 c2 | BAGF E2 A2 | G2 E2 A2 B2 | c2 e2 c2 f2 | %15
w: lips when- as|you kiss,|* you kiss|me.|Cru- el, you|pull a- way too soon your|lips, your dain- ty|lips; cru- el, you|
 e_dcB A2 d2- | d2 c2 B4 | c4 B2 (A2- | G2) F4 (E2 | D2) (E4 D2) | E8 | z8 | e4 B3 c | %23
w: pull a- way too soon, too|* too soon|your lips when\-|* as you|* kiss *|me.||But you should|
 _d2 d2 c2 A2 | c2 c2 B2 B2- | BA G2 F (EFG) | A4 E2 A2 | GA (B4 =A2) | B4 z2 B2- | BAGA B2 E2 | %30
w: hold them still, should|hold them still, but|* you should hold them * *|still, and then|you should bliss *|me. Now|* or ere O taste them,|
 z2 e3 _dcd | e2 AB c_d e2- | e_d c2 B2 A2- | A2 B4 A2 | G2 (A4 G2) | A8 | z2 A2 A2 G2 | A4 z2 E2 | %38
w: straight a- way they|haste, straight a- way they haste|* them a- way they|* haste them,|they haste *|them.|But you per-|haps re-|
 (G3 A) B4 | z2 e2 _d3 d | c2 c2 B2 A2 | A2 G2 F4 | G4 E4 | B8- | B4 A4 | G4 F4 | E4 B4 | e8- | %48
w: tire * them|To move my|thoughts there- by, the|more to fire|them. A-|las,|* a-|las such|baits, a-|las,|
 e4 _d4 | c4 (B2 F2) | G2 B4 AG | (FE) F2 E4 | B,4 z2 e2- | ee _d2 c4 | B4 z2 A2- | AA G2 F4 | %56
w: * a-|las, such *|baits you need to|find * out ne-|ver: If|* you would let|me, if|* you would let|
 E4 z2 e2- | ee _d2 c4 | B4 z2 A2- | AA G2 F4 | E2 E2 F2 G2 | A2 e3 e _d2 | c2 c2 B2 G2 | %63
w: me, if|* you would let|me, if|* you would let|me, you should not|fear if you would|let me, I would|
 F2 E2 F4 | G8 | z8 | z4 E4 | e8- | e4 _d4 | c4 B4 | A2 c2 (BAGF | E2) A2 F2 (B2- | BAGF E2 FE) | %73
w: kiss you e-|ver.||A-|las,|* a-|las, such|baits, such baits * * *|* you need to||
 D2 (B3 A G2) | F2 F2 E2 E2 | (F2 G2) A2 e2- | ee _d2 c4 | B4 z2 B2- | BB A2 G2 E2 | F2 G2 A4 | %80
w: find, you * *|need to find out|ne\- * ver: If|* you would let|me, if|* you would let me,|you would let|
 E2 B2 c2 d2 | e4 B4 | z2 e3 e _d2 | c4 B2 f2 | e2 E2 (FG A2) | G2 B2 AGFE | D2 E2 F2 G2 | %87
w: me, if you would|let me,|if you would|let me, O|I would kiss * *|you, and kiss, and kiss, and|kiss, and kiss, kiss|
 F2 (E4 D2) | E8 |] %89
w: you e\- *|ver.|
V:3
 z8 | z8 | e4 c2 f2 |[M:4/4][K:treble-8] e_dcB A2 d2 | c2 A4 B2 | c4 _d4 | e8 | A4 e4- | %8
w: ||Cru- el, you|pull a- way too soon your|sweet lips, your|dain- ty|lips|when- as|
 e2 (_d4 c2) | B8 | E8 | z8 | e4 c2 f2 | e_dcB A2 d2 | c2 A4 B2 | c4 _d4 | e8 | A4 e4- | %18
w: * you *|kiss|me.||Cru- el you|pull a- way too soon your|sweet lips, your|dain- ty|lips|when- as|
 e2 (_d4 c2) | B8 | E4 e4 | B3 c _d2 d2 | c2 A2 e2 e2 | B2 B2 F3 A | A2 A2 G2 E2 | G3 A B2 B2 | %26
w: * you *|kiss|me. But|you should hold them|still, should hold them|still, but you should|hold them still should|hold them still, and|
 F3 (GABc_d | e2) e2 c4 | B2 B3 AGA | B2 E2 z2 e2- | e_dcd e2 A2 | z2 A4 G2 | (ABc_d e2) c2 | %33
w: then should * * * *|* you bliss|me. Now or ere I|taste them, straight|* a- way they haste them,|straight a-|way * * * * they|
 _d4 d4 | e8 | A4 z2 A2 | c3 _d e4 | z2 A2 (c3 _d) | e4 z2 E2 | G3 A B2 (FG | ABc_d) e2 f2 | %41
w: haste, they|haste|them. But|you per- haps|re- tire *|them To|move my thoughts there\- *|* * * * by, the|
 d2 e2 B4 | E8 | z4 E4 | e8- | e4 _d4 | c4 B4 | A4 G4 | A4 B4 | c4 d4 | e2 E2 G2 A2 | B4 E2 e2- | %52
w: more to fire|them.|A-|las,|* a-|las, such|baits, a-|las, such|baits you|need to find out|ne- ver: If|
 ee _d2 c4 | B4 A2 A2 | GF G2 A4 | B6 B2 | c3 _d e2 c2 | B4 z2 A2- | AA G2 F4 | E2 e3 e _d2 | %60
w: * you would but|let me, if|you would but let|me, if|you would but let|me, if|* you would let|me, if you would|
 c4 B4 | A2 A2 (GF G2) | A2 F2 G3 A | B8 | E8 | z4 E4 | e8- | e4 _d4 | c4 B4 | A4 G4 | A4 B4 | %71
w: let me,|I would kiss * *|you, and kiss you|ev-|er.|A-|las,|* a-|las, such|baits, a-|las, such|
 c4 d4 | e2 E2 G2 A2 | B4 E2 e2- | ee _d2 c4 | B4 A2 A2 | GF G2 A4 | B6 B2 | c3 _d e2 c2 | %79
w: baits you|need to fmd out|ne- ver: If|* you would but|let me, if|you would but let|me, if|you would but let|
 B4 z2 A2- | AA G2 F4 | E2 e3 e _d2 | c4 B4 | ABc_d e2 B2 | cBAG F4 | G4 A4 | B8 | B8 | E8 |] %89
w: me, If|* you would let|me, if you would|let me,|if you would but let me,|I would kiss, and kiss|you, kiss|you|e-|ver.|

